images/ERN.svg

<svg height="250" viewBox="0 0 250 250" width="250" xmlns="http://www.w3.org/2000/svg"><path d="m245.9375 124.25c0 66.859375-54.203125 121.0625-121.0625 121.0625s-121.0625-54.203125-121.0625-121.0625 54.203125-121.0625 121.0625-121.0625 121.0625 54.203125 121.0625 121.0625zm0 0" fill="#18103c"/><g fill="#2dbaa1"><path d="m90.3125 159.875c8.9375 0 17.875-3.375 24.6875-10.1875l5.125-5.125 14.6875-14.625 14.875-14.875c2.6875-2.6875 6.25-4.125 10-4.125s7.3125 1.5 10 4.125c2.6875 2.6875 4.125 6.25 4.125 10s-1.5 7.3125-4.125 10c-2.6875 2.6875-6.25 4.125-10 4.125s-7.3125-1.5-10-4.125l-5.125-5.125-4.875 4.875 5.125 5.125c4 4 9.25 6.1875 14.875 6.1875s10.9375-2.1875 14.875-6.1875c4-4 6.1875-9.25 6.1875-14.875s-2.1875-10.9375-6.1875-14.875c-4-4-9.25-6.1875-14.875-6.1875s-10.9375 2.1875-14.875 6.1875l-2.3125 2.3125-12.5 12.5625-14.75 14.5625-1.4375 1.4375-3.125 3.0625-.625.625c-10.875 10.875-28.625 10.875-39.5625 0-5.3125-5.3125-8.1875-12.3125-8.1875-19.75 0-7.5 2.9375-14.5 8.1875-19.75 5.3125-5.3125 12.3125-8.1875 19.75-8.1875 7.5 0 14.5 2.9375 19.75 8.1875l10 10-19.8125 19.8125c-2.6875 2.6875-6.25 4.125-10 4.125-2.4375 0-4.8125-.625-6.875-1.75l24.5625-24.5625-2.75-2.75c-.8125-.8125-1.6875-1.5-2.5625-2.1875-3.5625-2.5625-7.8125-4-12.3125-4-5.625 0-10.9375 2.1875-14.875 6.1875-4 4-6.1875 9.25-6.1875 14.875s2.1875 10.9375 6.1875 14.875c4 4 9.25 6.1875 14.875 6.1875s10.9375-2.1875 14.875-6.1875l24.625-24.625-14.75-14.9375c-13.625-13.625-35.6875-13.625-49.3125 0-6.5625 6.5625-10.1875 15.3125-10.1875 24.6875s3.625 18.0625 10.1875 24.6875c6.8125 6.75 15.6875 10.1875 24.625 10.1875zm-14.125-34.875c0-3.75 1.5-7.3125 4.125-10 2.6875-2.6875 6.25-4.125 10-4.125 2.625 0 5.1875.6875 7.375 2.0625l-19.4375 19.4375c-1.375-2.1875-2.0625-4.75-2.0625-7.375zm0 0"/><path d="m139.875 105.25c10.875-10.875 28.625-10.875 39.5625 0 5.3125 5.3125 8.1875 12.3125 8.1875 19.75 0 7.5-2.9375 14.5-8.1875 19.75-5.3125 5.3125-12.3125 8.1875-19.75 8.1875-7.5 0-14.5-2.9375-19.75-8.1875l-5.125-5.125-4.875 4.875 5.0625 5.0625c6.8125 6.8125 15.75 10.1875 24.6875 10.1875s17.875-3.375 24.6875-10.1875c6.5625-6.5625 10.1875-15.3125 10.1875-24.6875s-3.625-18.0625-10.1875-24.6875c-13.625-13.625-35.6875-13.625-49.3125 0l-5.125 5.125 4.875 4.875zm0 0"/></g></svg>

<!-- Generator: Adobe Illustrator 26.0.2, SVG Export Plug-In . SVG Version: 6.00 Build 0)  -->
<svg xmlns="http://www.w3.org/2000/svg" xmlns:xlink="http://www.w3.org/1999/xlink" width="250px" height="250px" viewBox="0 0 250 250" version="1.1">
<g id="surface1">
<path style=" stroke:none;fill-rule:nonzero;fill:rgb(9.411765%,6.27451%,23.529412%);fill-opacity:1;" d="M 245.9375 124.25 C 245.9375 191.109375 191.734375 245.3125 124.875 245.3125 C 58.015625 245.3125 3.8125 191.109375 3.8125 124.25 C 3.8125 57.390625 58.015625 3.1875 124.875 3.1875 C 191.734375 3.1875 245.9375 57.390625 245.9375 124.25 Z M 245.9375 124.25 "/>
<path style=" stroke:none;fill-rule:nonzero;fill:rgb(17.647059%,72.941178%,63.137257%);fill-opacity:1;" d="M 90.3125 159.875 C 99.25 159.875 108.1875 156.5 115 149.6875 L 120.125 144.5625 L 134.8125 129.9375 L 149.6875 115.0625 C 152.375 112.375 155.9375 110.9375 159.6875 110.9375 C 163.4375 110.9375 167 112.4375 169.6875 115.0625 C 172.375 117.75 173.8125 121.3125 173.8125 125.0625 C 173.8125 128.8125 172.3125 132.375 169.6875 135.0625 C 167 137.75 163.4375 139.1875 159.6875 139.1875 C 155.9375 139.1875 152.375 137.6875 149.6875 135.0625 L 144.5625 129.9375 L 139.6875 134.8125 L 144.8125 139.9375 C 148.8125 143.9375 154.0625 146.125 159.6875 146.125 C 165.3125 146.125 170.625 143.9375 174.5625 139.9375 C 178.5625 135.9375 180.75 130.6875 180.75 125.0625 C 180.75 119.4375 178.5625 114.125 174.5625 110.1875 C 170.5625 106.1875 165.3125 104 159.6875 104 C 154.0625 104 148.75 106.1875 144.8125 110.1875 L 142.5 112.5 L 130 125.0625 L 115.25 139.625 L 113.8125 141.0625 L 110.6875 144.125 L 110.0625 144.75 C 99.1875 155.625 81.4375 155.625 70.5 144.75 C 65.1875 139.4375 62.3125 132.4375 62.3125 125 C 62.3125 117.5 65.25 110.5 70.5 105.25 C 75.8125 99.9375 82.8125 97.0625 90.25 97.0625 C 97.75 97.0625 104.75 100 110 105.25 L 120 115.25 L 100.1875 135.0625 C 97.5 137.75 93.9375 139.1875 90.1875 139.1875 C 87.75 139.1875 85.375 138.5625 83.3125 137.4375 L 107.875 112.875 L 105.125 110.125 C 104.3125 109.3125 103.4375 108.625 102.5625 107.9375 C 99 105.375 94.75 103.9375 90.25 103.9375 C 84.625 103.9375 79.3125 106.125 75.375 110.125 C 71.375 114.125 69.1875 119.375 69.1875 125 C 69.1875 130.625 71.375 135.9375 75.375 139.875 C 79.375 143.875 84.625 146.0625 90.25 146.0625 C 95.875 146.0625 101.1875 143.875 105.125 139.875 L 129.75 115.25 L 115 100.3125 C 101.375 86.6875 79.3125 86.6875 65.6875 100.3125 C 59.125 106.875 55.5 115.625 55.5 125 C 55.5 134.375 59.125 143.0625 65.6875 149.6875 C 72.5 156.4375 81.375 159.875 90.3125 159.875 Z M 76.1875 125 C 76.1875 121.25 77.6875 117.6875 80.3125 115 C 83 112.3125 86.5625 110.875 90.3125 110.875 C 92.9375 110.875 95.5 111.5625 97.6875 112.9375 L 78.25 132.375 C 76.875 130.1875 76.1875 127.625 76.1875 125 Z M 76.1875 125 "/>
<path style=" stroke:none;fill-rule:nonzero;fill:rgb(17.647059%,72.941178%,63.137257%);fill-opacity:1;" d="M 139.875 105.25 C 150.75 94.375 168.5 94.375 179.4375 105.25 C 184.75 110.5625 187.625 117.5625 187.625 125 C 187.625 132.5 184.6875 139.5 179.4375 144.75 C 174.125 150.0625 167.125 152.9375 159.6875 152.9375 C 152.1875 152.9375 145.1875 150 139.9375 144.75 L 134.8125 139.625 L 129.9375 144.5 L 135 149.5625 C 141.8125 156.375 150.75 159.75 159.6875 159.75 C 168.625 159.75 177.5625 156.375 184.375 149.5625 C 190.9375 143 194.5625 134.25 194.5625 124.875 C 194.5625 115.5 190.9375 106.8125 184.375 100.1875 C 170.75 86.5625 148.6875 86.5625 135.0625 100.1875 L 129.9375 105.3125 L 134.8125 110.1875 Z M 139.875 105.25 "/>
</g>
</svg>
